X:420
T: Tripping Thro' the Meadows
S: "Roche Collection of Traditional Irish Music" [III/23/77]
L: 1/8
M: 4/4
R: reel
K: Ador
EAAG e2 dB | eAdB GABG | EAAG e2 dB | gedB BA A2 :|
eaag bgag | egdg egdg | eaag bgaf | gedB BA A2 |
eaag bgag | egdg egdg | bgaf gbaf | gedB BA A2 ||
